packages/icons/src/SVG/double-chevron-left.svg

<svg width="12" height="12" viewBox="0 0 12 12" fill="none" xmlns="http://www.w3.org/2000/svg">
<path d="M11.5 10.4011L7.19249 6L11.5 1.59893L10.5079 0.5L5 6L10.5079 11.5L11.5 10.4011Z" fill="#4C505B"/>
<path d="M7 10.4011L2.69249 6L7 1.59893L6.00792 0.5L0.5 6L6.00792 11.5L7 10.4011Z" fill="#4C505B"/>
</svg>

<!-- Generated by IcoMoon.io -->
<svg version="1.1" xmlns="http://www.w3.org/2000/svg" width="12" height="12" viewBox="0 0 12 12">
<title>double-chevron-left</title>
<path d="M11.5 10.401l-4.308-4.401 4.308-4.401-0.992-1.099-5.508 5.5 5.508 5.5 0.992-1.099z"></path>
<path d="M7 10.401l-4.308-4.401 4.308-4.401-0.992-1.099-5.508 5.5 5.508 5.5 0.992-1.099z"></path>
</svg>
